icon-themes/breeze_svg/cmd/32/inserttreecontrol.svg

<svg viewBox="0 0 32 32" xmlns="http://www.w3.org/2000/svg"><path d="m4 4v10h5v8 1h1 8v5h10v-10h-10v4h-8v-8h4v-5h4v5h10v-10h-10v4h-4v-4zm1 1h8v8h-8zm14 0h8v8h-8z" fill="#4d4d4d"/></svg>

<svg xmlns="http://www.w3.org/2000/svg" viewBox="0 0 32 32">
 <path 
     style="fill:#4d4d4d" 
     d="M 4 4 L 4 14 L 9 14 L 9 22 L 9 23 L 10 23 L 18 23 L 18 28 L 28 28 L 28 18 L 18 18 L 18 22 L 10 22 L 10 14 L 14 14 L 14 9 L 18 9 L 18 14 L 28 14 L 28 4 L 18 4 L 18 8 L 14 8 L 14 4 L 4 4 z M 5 5 L 13 5 L 13 13 L 5 13 L 5 5 z M 19 5 L 27 5 L 27 13 L 19 13 L 19 5 z "
     />
</svg>
